icons/css-variables/folder_cargo.svg

<svg xmlns="http://www.w3.org/2000/svg" width="16" height="16" viewBox="0 0 16 16">
	<g fill="none" stroke-linecap="round" stroke-linejoin="round">
		<path stroke="var(--vscode-ctp-text)" d="M 4.5,4.5 H 12 c 0.828427,0 1.5,0.6715729 1.5,1.5 V 6.5 M 6,13.5 H 2 C 1.1715729,13.5 0.5,12.828427 0.5,12 V 3.5 c 0,-0.5522847 0.44771525,-1 1,-1 h 5 c 0.5522847,0 1,0.4477153 1,1 v 1" />
		<g fill-rule="evenodd" stroke="var(--vscode-ctp-peach)" transform="translate(7.429 7.429)scale(.57143)">
			<path d="M 1.5,7 8,10.5 14.5,7 M 4.5,4.5 8.003,6.5 14.498,3 M 4.5,5.5 v 7 M 8,6.5 V 14" />
			<path d="M 8.003,3 11.5,4.5 v 8" />
			<path stroke-linecap="square" d="M 1.5,6.984 V 11 L 8.003,14.5 14.5,11 V 3 L 11,1.5 4.5,4.5 v 1 z" />
		</g>
	</g>
</svg>

<svg xmlns="http://www.w3.org/2000/svg" width="16" height="16" viewBox="0 0 16 16">
	<g fill="none" stroke-linecap="round" stroke-linejoin="round">
		<path stroke="var(--vscode-ctp-text)" d="m4.5 4.5h7.5c0.83 0 1.5 0.67 1.5 1.5v0.5m-7.5 7h-4c-0.83 0-1.5-0.67-1.5-1.5v-8.5c0-0.55 0.45-1 1-1h5c0.55 0 1 0.45 1 1v1" />
		<path stroke="var(--vscode-ctp-peach)" d="m1.5 7v4l6.5 3.5 6.5-3.5v-8l-3.5-1.5-6.5 3v1zm6.5-4 3.5 1.5v8m-10-5.5 6.5 3.5 6.5-3.5m-10-2.5 3.5 2 6.5-3.5m-10 2.5v7m3.5-6v7.5" transform="matrix(.57 0 0 .57 7.4 7.4)" />
	</g>
</svg>
